X:11
T:A Snake Is a Chiropractors Dream
R:reel
C: 1975, 2010 L.E. McCullough 
M:4/4
L:1/8
K:Em
|:B~G3 A~F3|~G3E F~D3|B~E3 EFGA|BedB A~F3|
|~B3G ~A3F|G~E3 ~F3D|B~E3 EFGA|BGAF G~E3:|
|:B~e3 efge|~f2af bfaf|e~B3 efge|defa g~e3|
B~e3 ef (3gfe|~f3a bfaf|bfag fedB|Adfd ~e3d:|
<end>
<start>
